!!!!SEGMENT: pl-lzu--m-15111--001-007_noskowski-zygmunt--spiewnik-dla-dzieci-op-34-7-gwiazdka.krn
!!!cenid: 18xx:4704
!!!COM: Noskowski, Zygmunt
!!!COM-rismID: pe106604
!!!CDT: 1846/05/02-1909/07/23
!!!CNT: Polish
!!!GTL: Śpiewnik dla dzieci, op. 34
!!!OTL: 7. Gwiazdka
!!!OMV: 007
!!!PDT: 1890
!!!AGN: Secular; Song; Children
!!!YEC: Copyright 2022 Narodowy Instytut Fryderyka Chopina (https://polishscores.org)
!!!YEM: License CC-BY-4.0 (https://creativecommons.org/licenses/by/4.0)
!!!SMS-siglum: PL-LŹu
!!!SMS-shelfmark: M 15111
!!!SMS-variant:
!!!SMS-altvar:
!!!SMS-shelfwork: 001-007 G
!!!NIFC-rismSourceID: 1001234040
!!!NIFC-rismChildID: 1001234040
!!!NIFC-islandoraID: pl-lzu:5455
!!!URL-pdf-islandora: https://repozytorium.nifc.pl/islandora/object/pl-lzu%3A5455/datastream/PDF/view
!!!URL-scan: https://polish.musicsources.pl/pl/lokalizacje/galeria/druki-muzyczne/23228/13 @EN{Scan on Polish Music Sources Website} @PL{Skany w portalu Dziedzictwo Muzyki Polskiej w otwartym dostępie}
!!!IIIF:
!!!ONB-nifc:
!!!AIN: 1 piano 1 vox
!!!key: E-
!!!OMD: Allegretto moderato.
**kern	**kern	**dynam	**kern	**text	**text	**dynam
*part2	*part2	*part2	*part1	*part1	*part1	*part1
*staff3	*staff2	*staff2,3	*staff1	*staff1	*staff1	*staff1
*I"[Piano]	*I"[Piano]	*	*I"[Voice]	*	*	*
*I'pf	*I'pf	*	*I'V	*	*	*
*Ipiano	*Ipiano	*	*Ivox	*	*	*
*ICklav	*ICklav	*	*ICvox	*	*	*
*IGacomp	*IGacomp	*	*IGsolo	*	*	*
*>[A,B,B,C]	*>[A,B,B,C]	*>[A,B,B,C]	*>[A,B,B,C]	*>[A,B,B,C]	*>[A,B,B,C]	*>[A,B,B,C]
*>A	*>A	*>A	*>A	*>A	*>A	*>A
*clefF4	*clefG2	*	*clefG2	*	*	*
*k[b-e-a-]	*k[b-e-a-]	*	*k[b-e-a-]	*	*	*
*E-:	*E-:	*	*E-:	*	*	*
*M3/4	*M3/4	*	*M3/4	*	*	*
=1	=1	=1	=1	=1	=1	=1
!	!LO:TX:a:i:t=Umiarkowanie żwawo.	!LO:DY:rj	!	!	!	!
(8BB-/L	(8B-/L	p	2.r	.	.	.
8C/J	8c/J	.	.	.	.	.
4D\)	4d/)	.	.	.	.	.
(8E-\L	(8e-/L	.	.	.	.	.
8G\J	8g/J	.	.	.	.	.
=2	=2	=2	=2	=2	=2	=2
4.F\	4.f/	.	2.r	.	.	.
8C\L	8c/L	.	.	.	.	.
8D\	8d/	.	.	.	.	.
8E-\J)	8e-/J)	.	.	.	.	.
=3	=3	=3	=3	=3	=3	=3
(8F\L	(8f/L	.	2.r	.	.	.
8G\J	8g/J	.	.	.	.	.
4A-\)	4a-/)	.	.	.	.	.
(8En\L	(8en/L	.	.	.	.	.
8F\J	8f/J	.	.	.	.	.
=4	=4	=4	=4	=4	=4	=4
2.B-\)	4b-/)	.	2.r	.	.	.
.	4c/ 4e- 4an	.	.	.	.	.
.	4d/ 4f 4a-X	.	.	.	.	.
!!LO:LB:g=original
=||	=||	=||	=||	=||	=||	=||
=5!|:	=5!|:	=5!|:	=5!|:	=5!|:	=5!|:	=5!|:
*>B	*>B	*>B	*>B	*>B	*>B	*>B
*	*	*	*	*v:1	*v:2	*
!	!	!	!LO:TX:a:i:t=cantabile.	!	!	!LO:DY:rj
4E-\	8.g/L	p	8.g/	O	Świe-	p
.	16a-/Jk	.	16a-/	gwiaz-	-ci	.
4G\ 4B-	4e-/ 4b-	.	4b-/	-decz-	się	.
4E-\ 4B-	4e-/ 4g	.	4g/	-ko	cho-	.
=6	=6	=6	=6	=6	=6	=6
4BB-\ 4A-	8d/L 8f	.	(8f/L	zło-	-in-	.
.	(8d/J	.	8d/J)	.	.	.
4E-\ 4G	4e-/)	.	4e-/	-ta,	-ka.	.
!	!LO:TX:c:i:t=sempre legato	!	!	!	!	!
4D\	4r	.	4r	.	.	.
=7	=7	=7	=7	=7	=7	=7
4C/	8.c/L 8.e- 8.g	.	8.g/	Gwiazd-	ma-	.
.	16a-/Jk	.	16a-/	-ko	-tecz-	.
4GG/	4B-/ 4e- 4b-	.	4b-/	u-	-ka	.
4AA-/	4c/ 4e- 4g	.	4g/	-ko-	nas	.
=8	=8	=8	=8	=8	=8	=8
4BB-/	4A-/ 4d 4f	.	(8f/L	-cha-	ści-	.
.	.	.	8d/J)	.	.	.
4EE-/	4G/ 4e-	.	4e-/	-na!	-ska,	.
(8E-\L	4r	.	4r	.	.	.
8D\J	.	.	.	.	.	.
!!LO:LB:g=original
=9	=9	=9	=9	=9	=9	=9
*	*	*	*	*v:1	*v:2	*
2C/)	(8a-/L	<	8a-/	Wy-	Ot,	.
.	8g/J)	.	8g/	-glą-	to-	.
.	4e-/ 4a-	.	4a-/	-da-	-bie	.
4AA-/	(8e-\L 8a- 8cc	[	(8cc\L	-liś-	ko-	.
.	8dd\J)	.	8dd\J)	.	.	.
=10	=10	=10	=10	=10	=10	=10
2GG/	4e-/ 4b- 4ee-	.	2ee-\	-my	-ni-	.
.	4e-/	.	.	.	.	.
4C/	4c/ 4e- 4g	.	4g/	cię	-czek,	.
=11	=11	=11	=11	=11	=11	=11
4FF/	(8c/L 8e- 8a-	.	8a-/	Od	Ot,	.
.	8cc/J)	>	8cc\	sa-	to-	>
4BB-/	4.d/ 4.b-	.	4.b-/	-me-	-bie	.
4BB-\ 4A-	.	.	.	.	.	.
.	8d/ 8f	]	8f/	-go	ko-	]
=12	=12	=12	=12	=12	=12	=12
*^	*	*	*	*	*	*
(8G/L	2E-\	(8e-/L 8g	.	(8g/L	ra-	-ły-	.
8A-/J	.	8d/J 8f	.	8f/J)	.	.	.
4G/)	.	4e-/)	.	4e-/	-na.	-ska.	.
!LO:TX:b:t=P:problem=brak rozpoczcia łuku	!	!	!	!	!	!	!
(8D/L	4ryy	4r	.	4r	.	.	.
8C/J	.	.	.	.	.	.	.
*v	*v	*	*	*	*	*	*
!!LO:PB:g=original
=13	=13	=13	=13	=13	=13	=13
*	*	*	*	*v:1	*v:2	*
2BB-/)	4f/	.	4.f/	Wy-	A	.
.	(8B-/L 8d	.	.	.	.	.
.	8f/J)	.	8f/	-glą-	ty	.
4AA-/	8c/L 8f	.	8f/	-da-	sie-	.
.	8f/J	.	8f/	-liś-	-ro-	.
=14	=14	=14	=14	=14	=14	=14
2FF/	(>8A-/L 8d-X 8a-	.	(8a-/L	-my	-teń-	.
.	8g/J	.	8g/J)	.	.	.
.	4A-/) 4d- 4f	.	4f/	cię	-ko,	.
4BB-/	8A-/L 8dn	.	8r	.	.	.
.	8f/J	.	8f/	Dro-	Co	.
=15	=15	=15	=15	=15	=15	=15
4E-\	(4.g/	.	(4.g/	-bne-	sto-	.
!	!	!LO:HP:t=crescendo	!	!	!	!LO:HP:t=crescendo
.	.	<	.	.	.	<
4B-\ 4e-	.	.	.	.	.	.
.	8f/L	.	8f/)	.	.	.
4B-\ 4e-	8g/	.	8g/	-mi	-isz	.
.	8a-/J)	.	8a-/	szyb-	za	.
=16	=16	=16	=16	=16	=16	=16
4D\	(>4b-/	.	4b-/	-ka-	drzwia-	.
4B-\ 4e-	4g/)	.	4g/	-mi,	-mi,	.
4B-\ 4e-	4r	.	4r	.	.	.
!!LO:LB:g=original
=17	=17	=17	=17	=17	=17	=17
*	*	*	*	*v:1	*v:2	*
!	!	!LO:DY:rj	!	!	!	!LO:DY:rj
4C/	4.an/	f	4.an/	Ry-	O-	f
4An\ 4e-	.	.	.	.	.	.
.	8g/L 8a	<	8a/	-chło	-trzyj	.
4A\ 4e-	8g/ 8a	.	8a/	sie	łe-	.
.	8g/J 8a	[	8a/	u-	-zki	.
=18	=18	=18	=18	=18	=18	=18
4D\	(8f#X/L 8cc	.	(8cc\L	-ka-	z o-	.
.	8b-/J	.	8b-\J)	.	.	.
4A-\ 4d	4f#/) 4an	.	4an/	-żesz	-czu,	.
4C/	(8d/L 8f#	.	8r	.	.	.
.	8a/J)	.	8a/	Wy-	Pójdź,	.
=19	=19	=19	=19	=19	=19	=19
4BB-/	4d/ 4g 4dd	.	(4.dd\	-so-	pójdź	.
4C/	(8e-/L 8an	.	.	.	.	.
.	8cc/J)	.	8cc\)	.	.	.
8D/L	8d/L 8g 8b-	.	8b-/	-ko	ciesz	.
8DD/J	8d/J 8f#X 8a	.	8an/	nad	się	.
.	.	>	.	.	.	.
=20	=20	=20	=20	=20	=20	=20
*	*^	*	*	*	*	*
(>2GG/	(4an/ 4cc	2d\	.	(4cc\	na-	z na-	>
.	4g/ 4b-	.	.	4b-\)	.	.	.
4BB-/)	4d/) 4fn 4a-X	4ryy	]	4a-X/	-mi.	-mi.	]
*	*v	*v	*	*	*	*	*
!!LO:LB:g=original
=21:|!	=21:|!	=21:|!	=21:|!	=21:|!	=21:|!	=21:|!
*>C	*>C	*>C	*>C	*>C	*>C	*>C
*	*	*	*	*v:3	*	*
!	!	!LO:DY:rj	!	!	!	!LO:DY:rj
4BB-/	(8d-X/L 8e- 8g	p	8.g/	Jest	.	p
.	8a-/J	.	.	.	.	.
.	.	.	16a-/	tu	.	.
4GG/	4d-/) 4e- 4b-	.	4b-/	i	.	.
4AA-/	(8c/L 8e-	.	4g/	dla	.	.
.	8g/J)	.	.	.	.	.
=22	=22	=22	=22	=22	=22	=22
4BB-\ 4A-	8dn/L 8f	.	(8f/L	cie-	.	.
.	(8d/J	.	8d/J)	.	.	.
4E-\ 4G	4e-/)	.	4e-/	-bie	.	.
4D\	4r	.	4r	.	.	.
=23	=23	=23	=23	=23	=23	=23
2.C/	8.g/L	.	8.g/	Miej-	.	.
.	16a-/Jk	.	16a-/	-sce	.	.
.	4B-/ 4en 4b-	.	4b-/	wśród	.	.
.	4B-/ 4e 4g	.	4g/	gro-	.	.
=24	=24	=24	=24	=24	=24	=24
8FF/L	8A-/L 8f	.	(8f/L	-mad-	.	.
8BB-/J	8A-/J 8d	.	8d/J)	.	.	.
4EE-/	4G/ 4e-X	.	4e-/	-ki,	.	.
8E-\L	4r	.	4r	.	.	.
8D\J	.	.	.	.	.	.
=25	=25	=25	=25	=25	=25	=25
2C/	(8a-/L	<	8.a-/	Wszy-	.	<
.	8g/J	.	.	.	.	.
.	.	.	16g/	-scy-	.	.
.	4e-/) 4a-	.	4a-/	-śmy	.	.
4AA-/	(8cc\L	[	(8cc\L	dziś	.	[
.	8dd\J)	.	8dd\J)	.	.	.
!!LO:PB:g=original
=26	=26	=26	=26	=26	=26	=26
*	*	*	*	*v:3	*	*
2GG/	4e-/ 4b- 4ee-	.	2ee-\	bra-	.	.
.	4e-/	.	.	.	.	.
4C/	4c/ 4e- 4g	.	4g/	-cia,	.	.
=27	=27	=27	=27	=27	=27	=27
*	*^	*	*	*	*	*
2FF/	8c/L 8e- 8a-	2ryy	.	8a-/	Dzie-	.	.
.	(8b-/J	.	.	8b-/	-ci	.	.
.	8cc/L	.	>	(>8cc/L	je-	.	>
.	8a-/J)	.	.	8a-/J)	.	.	.
4BB-\ 4A-	(<8g/L	4d\	.	(>8g/L	-dnej	.	.
.	8f/J)	.	]	8f/J)	.	.	]
*	*v	*v	*	*	*	*	*
=28	=28	=28	=28	=28	=28	=28
4BB-\ 4A-	4d/ 4f	.	4f/	mat-	.	.
4E-\ 4G	4e-/	.	4e-/	-ki.	.	.
4r	4r	.	4r	.	.	.
=29	=29	=29	=29	=29	=29	=29
!	!	!LO:DY:rj	!	!	!	!
(8E-\L	(8e-/L	p	2.r	.	.	.
8F\	8f/	.	.	.	.	.
8G\	8g/	.	.	.	.	.
8c\	8cc/	.	.	.	.	.
8An\	8an/	.	.	.	.	.
8B-\J)	8b-/J)	.	.	.	.	.
=30	=30	=30	=30	=30	=30	=30
4g\	4gg\	.	2.r	.	.	.
4E-\ 4B-	4g\ 4ee-	.	.	.	.	.
4r	4r	.	.	.	.	.
==	==	==	==	==	==	==
*-	*-	*-	*-	*-	*-	*-
!!!system-decoration: p1{p2}
!!!RDF**kern: > = above
!!!RDF**kern: < = below
!!!ENC: Andrzej Gręziak
!!!END: 2025-03-04
!!!ENC: Marta Lawrence
!!!END: 2025-03-20
